assets/Synagogue/Flat/synagogue_flat.svg

<svg xmlns="http://www.w3.org/2000/svg" width="32" height="32" fill="none"><path fill="#212121" d="M18.55 3.44a7.97 7.97 0 0 0-2.6-.44c-.86 0-1.69.14-2.47.4-2.91.94-5.1 3.49-5.5 6.6h15.95a8.058 8.058 0 0 0-5.38-6.56Z"/><path fill="#F3AD61" d="M26 30h-3l-1.5-1-1.5 1h-1l-3-1-3 1h-1l-1.5-1L9 30H6V11.04C6 9.91 6.91 9 8.04 9h15.92c1.13 0 2.04.91 2.04 2.04V30Z"/><path fill="#212121" d="M20.98 15.46a4.98 4.98 0 1 1-9.961-.001 4.98 4.98 0 0 1 9.961.001Zm-7.25-2.02h-.85c-.12 0-.23.02-.3.14-.07.12-.03.22.03.33.28.47.56.95.85 1.43.04.07.05.13 0 .21-.3.49-.59.99-.89 1.48-.07.11-.11.22-.04.34.07.11.18.14.3.14h1.78c.09 0 .13.03.18.1.31.53.62 1.06.94 1.59.16.26.38.27.54.01.32-.53.64-1.05.95-1.58.05-.08.1-.12.2-.12.58.01 1.17 0 1.75 0 .25 0 .37-.22.24-.43-.29-.49-.58-.98-.88-1.47-.04-.07-.04-.12 0-.19.3-.5.6-.99.9-1.49.06-.11.1-.21.04-.33-.07-.12-.18-.14-.3-.14H17.4c-.1 0-.15-.03-.2-.11-.31-.53-.62-1.05-.93-1.58-.16-.27-.38-.27-.54 0-.32.53-.64 1.06-.96 1.6-.04.07-.09.1-.17.1-.29-.03-.58-.03-.87-.03Zm2.15-1.01-.52.9c-.02.04.01.09.05.09h1.04c.05 0 .08-.05.05-.09l-.52-.9c-.02-.04-.08-.04-.1 0ZM16 18.5l.52-.9c.02-.04-.01-.09-.05-.09h-1.04c-.05 0-.08.05-.05.09l.52.9c.01.04.07.04.1 0Zm-2.8-4.49.53.9c.02.04.09.04.11 0l.52-.91c.02-.04-.01-.09-.06-.09l-1.04.01c-.06 0-.09.05-.06.09Zm5.5 2.86-.53-.9c-.02-.04-.09-.04-.11 0l-.52.91c-.02.04.01.09.06.09l1.04-.01c.05 0 .08-.05.06-.09Zm-5.45.08 1.04-.02c.05 0 .08-.05.05-.1l-.54-.9c-.03-.04-.09-.04-.11 0l-.51.91c-.01.06.02.11.07.11Zm5.42-3.02-1.04.02c-.05 0-.08.05-.05.1l.54.9c.03.04.09.04.11 0l.51-.91c.01-.06-.02-.12-.07-.11Zm-3.58.05c-.09 0-.14.02-.18.1-.25.42-.5.84-.76 1.26-.05.08-.05.13 0 .21.26.43.52.87.77 1.31.04.07.08.1.17.1h1.73c.07 0 .12-.02.16-.09.25-.43.51-.86.77-1.28.04-.07.04-.12 0-.18-.27-.44-.53-.89-.79-1.33-.04-.07-.09-.09-.16-.09h-.86c-.29-.01-.57-.01-.85-.01Z"/><path fill="#FFDEA7" d="M2 16.5v11h5v-11a2.5 2.5 0 0 0-5 0Zm23.02 0v11h5v-11a2.5 2.5 0 0 0-5 0Z"/><path fill="#212121" d="M13 27v3h6v-3c0-1.66-1.34-3-3-3s-3 1.34-3 3Zm-4 3v-2.5c0-.83.67-1.5 1.5-1.5s1.5.67 1.5 1.5V30H9Zm11 0v-2.5c0-.83.67-1.5 1.5-1.5s1.5.67 1.5 1.5V30h-3ZM2 30h5v-3H2v3Zm28 0h-5v-3h5v3Z"/></svg>

<svg width="32" height="32" viewBox="0 0 32 32" fill="none" xmlns="http://www.w3.org/2000/svg">
<path d="M18.55 3.44C17.74 3.16 16.86 3 15.95 3C15.09 3 14.26 3.14 13.48 3.4C10.57 4.34 8.37998 6.89 7.97998 10H23.93C23.52 6.93 21.4 4.41 18.55 3.44Z" fill="#212121"/>
<path d="M26 30H23L21.5 29L20 30H19L16 29L13 30H12L10.5 29L9 30H6V11.04C6 9.91 6.91 9 8.04 9H23.96C25.09 9 26 9.91 26 11.04V30Z" fill="#F3AD61"/>
<path d="M20.98 15.46C20.98 18.21 18.75 20.44 16 20.44C13.25 20.44 11.02 18.21 11.02 15.46C11.02 12.71 13.25 10.48 16 10.48C18.75 10.48 20.98 12.71 20.98 15.46ZM13.73 13.44C13.45 13.44 13.16 13.44 12.88 13.44C12.76 13.44 12.65 13.46 12.58 13.58C12.51 13.7 12.55 13.8 12.61 13.91C12.89 14.38 13.17 14.86 13.46 15.34C13.5 15.41 13.51 15.47 13.46 15.55C13.16 16.04 12.87 16.54 12.57 17.03C12.5 17.14 12.46 17.25 12.53 17.37C12.6 17.48 12.71 17.51 12.83 17.51C13.42 17.51 14.02 17.51 14.61 17.51C14.7 17.51 14.74 17.54 14.79 17.61C15.1 18.14 15.41 18.67 15.73 19.2C15.89 19.46 16.11 19.47 16.27 19.21C16.59 18.68 16.91 18.16 17.22 17.63C17.27 17.55 17.32 17.51 17.42 17.51C18 17.52 18.59 17.51 19.17 17.51C19.42 17.51 19.54 17.29 19.41 17.08C19.12 16.59 18.83 16.1 18.53 15.61C18.49 15.54 18.49 15.49 18.53 15.42C18.83 14.92 19.13 14.43 19.43 13.93C19.49 13.82 19.53 13.72 19.47 13.6C19.4 13.48 19.29 13.46 19.17 13.46C18.58 13.46 17.99 13.46 17.4 13.46C17.3 13.46 17.25 13.43 17.2 13.35C16.89 12.82 16.58 12.3 16.27 11.77C16.11 11.5 15.89 11.5 15.73 11.77C15.41 12.3 15.09 12.83 14.77 13.37C14.73 13.44 14.68 13.47 14.6 13.47C14.31 13.44 14.02 13.44 13.73 13.44ZM15.88 12.43L15.36 13.33C15.34 13.37 15.37 13.42 15.41 13.42H16.45C16.5 13.42 16.53 13.37 16.5 13.33L15.98 12.43C15.96 12.39 15.9 12.39 15.88 12.43ZM16 18.5L16.52 17.6C16.54 17.56 16.51 17.51 16.47 17.51H15.43C15.38 17.51 15.35 17.56 15.38 17.6L15.9 18.5C15.91 18.54 15.97 18.54 16 18.5ZM13.2 14.01L13.73 14.91C13.75 14.95 13.82 14.95 13.84 14.91L14.36 14C14.38 13.96 14.35 13.91 14.3 13.91L13.26 13.92C13.2 13.92 13.17 13.97 13.2 14.01ZM18.7 16.87L18.17 15.97C18.15 15.93 18.08 15.93 18.06 15.97L17.54 16.88C17.52 16.92 17.55 16.97 17.6 16.97L18.64 16.96C18.69 16.96 18.72 16.91 18.7 16.87ZM13.25 16.95L14.29 16.93C14.34 16.93 14.37 16.88 14.34 16.83L13.8 15.93C13.77 15.89 13.71 15.89 13.69 15.93L13.18 16.84C13.17 16.9 13.2 16.95 13.25 16.95ZM18.67 13.93L17.63 13.95C17.58 13.95 17.55 14 17.58 14.05L18.12 14.95C18.15 14.99 18.21 14.99 18.23 14.95L18.74 14.04C18.75 13.98 18.72 13.92 18.67 13.93ZM15.09 13.98C15 13.98 14.95 14 14.91 14.08C14.66 14.5 14.41 14.92 14.15 15.34C14.1 15.42 14.1 15.47 14.15 15.55C14.41 15.98 14.67 16.42 14.92 16.86C14.96 16.93 15 16.96 15.09 16.96C15.67 16.96 16.24 16.96 16.82 16.96C16.89 16.96 16.94 16.94 16.98 16.87C17.23 16.44 17.49 16.01 17.75 15.59C17.79 15.52 17.79 15.47 17.75 15.41C17.48 14.97 17.22 14.52 16.96 14.08C16.92 14.01 16.87 13.99 16.8 13.99C16.51 13.99 16.22 13.99 15.94 13.99C15.65 13.98 15.37 13.98 15.09 13.98Z" fill="#212121"/>
<path d="M2 16.5V27.5H7V16.5C7 15.12 5.88 14 4.5 14C3.12 14 2 15.12 2 16.5ZM25.02 16.5V27.5H30.02V16.5C30.02 15.12 28.9 14 27.52 14C26.14 14 25.02 15.12 25.02 16.5Z" fill="#FFDEA7"/>
<path d="M13 27V30H19V27C19 25.34 17.66 24 16 24C14.34 24 13 25.34 13 27ZM9 30V27.5C9 26.67 9.67 26 10.5 26C11.33 26 12 26.67 12 27.5V30H9ZM20 30V27.5C20 26.67 20.67 26 21.5 26C22.33 26 23 26.67 23 27.5V30H20ZM2 30H7V27H2V30ZM30 30H25V27H30V30Z" fill="#212121"/>
</svg>
